localPackages/DesignSystem/Sources/DesignSystem/Resources/Assets.xcassets/IconSet/ic-storage.imageset/ic-storage.svg

<svg width="24" height="24" viewBox="0 0 24 24" fill="none" xmlns="http://www.w3.org/2000/svg">
<g id="ic-storage">
<path id="Icon" fill-rule="evenodd" clip-rule="evenodd" d="M6 5.25C6 4.985 6.11192 4.72422 6.39924 4.45139C6.69796 4.16775 7.15891 3.90177 7.76284 3.67578C8.96848 3.22466 10.5617 3 12 3C13.4383 3 15.0315 3.22466 16.2372 3.67578C16.8411 3.90177 17.302 4.16775 17.6008 4.45139C17.8881 4.72422 18 4.985 18 5.25C18 5.515 17.8881 5.77578 17.6008 6.04861C17.302 6.33225 16.8411 6.59823 16.2372 6.82422C15.0315 7.27534 13.4383 7.5 12 7.5C10.5617 7.5 8.96848 7.27534 7.76284 6.82422C7.15891 6.59823 6.69796 6.33225 6.39924 6.04861C6.11192 5.77578 6 5.515 6 5.25ZM4.5 5.25C4.5 4.47946 4.85683 3.84748 5.36638 3.36364C5.86454 2.89062 6.52859 2.53605 7.23716 2.27091C8.65652 1.73981 10.4383 1.5 12 1.5C13.5617 1.5 15.3435 1.73981 16.7628 2.27091C17.4714 2.53605 18.1355 2.89062 18.6336 3.36364C19.1432 3.84748 19.5 4.47946 19.5 5.25V9.75V14.25V18C19.5 19.4295 18.4726 20.5683 17.1461 21.3069C15.7955 22.0589 13.9773 22.5 12 22.5C10.0227 22.5 8.20448 22.0589 6.85389 21.3069C5.52737 20.5683 4.5 19.4295 4.5 18V14.25V9.75V5.25ZM6 12.1262V14.25C6 14.515 6.11192 14.7758 6.39924 15.0486C6.69796 15.3322 7.15891 15.5982 7.76284 15.8242C8.96848 16.2753 10.5617 16.5 12 16.5C13.4383 16.5 15.0315 16.2753 16.2372 15.8242C16.8411 15.5982 17.302 15.3322 17.6008 15.0486C17.8881 14.7758 18 14.515 18 14.25V12.1262C17.624 12.3661 17.202 12.5648 16.7628 12.7291C15.3435 13.2602 13.5617 13.5 12 13.5C10.4383 13.5 8.65652 13.2602 7.23716 12.7291C6.79805 12.5648 6.37603 12.3661 6 12.1262ZM18 9.75C18 10.015 17.8881 10.2758 17.6008 10.5486C17.302 10.8322 16.8411 11.0982 16.2372 11.3242C15.0315 11.7753 13.4383 12 12 12C10.5617 12 8.96848 11.7753 7.76284 11.3242C7.15891 11.0982 6.69796 10.8322 6.39924 10.5486C6.11192 10.2758 6 10.015 6 9.75V7.62621C6.37603 7.86612 6.79805 8.06478 7.23716 8.22909C8.65652 8.76019 10.4383 9 12 9C13.5617 9 15.3435 8.76019 16.7628 8.22909C17.202 8.06478 17.624 7.86612 18 7.62621V9.75ZM18 16.6262C17.624 16.8661 17.202 17.0648 16.7628 17.2291C15.3435 17.7602 13.5617 18 12 18C10.4383 18 8.65652 17.7602 7.23716 17.2291C6.79805 17.0648 6.37603 16.8661 6 16.6262V18C6 18.6416 6.47263 19.3778 7.58361 19.9964C8.67052 20.6016 10.2273 21 12 21C13.7727 21 15.3295 20.6016 16.4164 19.9964C17.5274 19.3778 18 18.6416 18 18V16.6262Z" fill="#0F0F0F"/>
</g>
</svg>

<svg xmlns="http://www.w3.org/2000/svg" width="24" height="24" viewBox="0 0 24 24">
  <g class="ic-storage">
    <path fill-rule="evenodd" d="M6 5.25c0-.265.112-.526.4-.799.298-.283.759-.55 1.363-.775C8.968 3.225 10.562 3 12 3c1.438 0 3.031.225 4.237.676.604.226 1.065.492 1.364.775.287.273.399.534.399.799s-.112.526-.4.799c-.298.283-.759.55-1.363.775-1.205.451-2.799.676-4.237.676-1.438 0-3.032-.225-4.237-.676-.604-.226-1.065-.492-1.364-.775C6.112 5.776 6 5.515 6 5.25Zm-1.5 0c0-.77.357-1.403.866-1.886.499-.473 1.163-.828 1.871-1.093C8.657 1.74 10.438 1.5 12 1.5c1.562 0 3.344.24 4.763.77.708.266 1.372.62 1.87 1.094.51.483.867 1.115.867 1.886V18c0 1.43-1.027 2.568-2.354 3.307-1.35.752-3.169 1.193-5.146 1.193-1.977 0-3.796-.441-5.146-1.193C5.527 20.568 4.5 19.43 4.5 18V5.25ZM6 12.126v2.124c0 .265.112.526.4.799.298.283.759.55 1.363.775 1.205.451 2.799.676 4.237.676 1.438 0 3.031-.225 4.237-.676.604-.226 1.065-.492 1.364-.775.287-.273.399-.534.399-.799v-2.124c-.376.24-.798.439-1.237.603-1.42.531-3.201.771-4.763.771-1.562 0-3.343-.24-4.763-.77A6.621 6.621 0 0 1 6 12.125ZM18 9.75c0 .265-.112.526-.4.799-.298.283-.759.55-1.363.775-1.205.451-2.799.676-4.237.676-1.438 0-3.032-.225-4.237-.676-.604-.226-1.065-.492-1.364-.775C6.112 10.276 6 10.015 6 9.75V7.626c.376.24.798.439 1.237.603C8.657 8.76 10.438 9 12 9c1.562 0 3.344-.24 4.763-.77A6.663 6.663 0 0 0 18 7.626V9.75Zm0 6.876c-.376.24-.798.439-1.237.603-1.42.531-3.201.771-4.763.771-1.562 0-3.343-.24-4.763-.77A6.621 6.621 0 0 1 6 16.625V18c0 .642.473 1.378 1.584 1.996C8.67 20.602 10.227 21 12 21c1.773 0 3.33-.398 4.416-1.004C17.527 19.378 18 18.642 18 18v-1.374Z" class="Icon"/>
  </g>
</svg>
